X:131
T:Emmett's Hedgehog
S:Niall Vallely - Beyond Words
Z:robin.beech@mcgill.ca
R:jig
M:6/8
L:1/8
K:Ador
A2e edB | A2A AGE | A2A AGE | GAG DEG |
A2e edB | A2A AGE | GAG DEG | BAG AEG ::
e2a ged | c2B BAG | B2B BAG | g2f edB |
e2a ged | c2B BAG | Bgf edB | EFG ABd :|
